!!!COM: Bach, Johann Sebastian
!!!OPR: Joh. Seb. Bachs vierstimmige Choralgesänge
!!!XEN: Four-part Chorales
!!!OTL: 69. Gott sei gelobet
!!!SCT: BWV 322
!!!SCA: Thematisch-systematisches Verzeichnis der musikalischen Werke Johann Sebastian Bach: Bach-Werke-Verzeichnis (Schmieder)
!!!YOR: Bach Gesellschaft Edition xxxix
!!!ENC: Steven Rasmussen
!!!CDT: 1685/3//-1750/7/28/
!!!OCY: Deutschland
!!!YEC: Copyright (c) 1994, 2000 Center for Computer Assisted Research in the Humanities
!!!YEM: Rights to all derivative editions reserved
!!!YEN: United States of America
**kern	**silbe	**kern	**silbe	**kern	**silbe	**kern	**silbe
*I:[SOPRANO]	*I:[SOPRANO]	*I:[ALTO]	*I:[ALTO]	*I:[TENORE]	*I:[TENORE]	*I:[BASSO]	*I:[BASSO]
*>[A,A,B]	*	*>[A,A,B]	*	*>[A,A,B]	*	*>[A,A,B]	*
*>A	*	*>A	*	*>A	*	*>A	*
*clefG2	*	*clefG2	*	*clefGv2	*	*clefF4	*
*k[]	*	*k[]	*	*k[]	*	*k[]	*
*C:	*	*C:	*	*C:	*	*C:	*
*M4/4	*	*M4/4	*	*M4/4	*	*M4/4	*
4g	Gottmit	4d	.	8BL	.	8GGL	.
.	.	.	.	8cJ	.	8AAJ	.
=1	=1	=1	=1	=1	=1	=1	=1
4g	seisei-	8gL	.	4d	.	4BB	.
.	.	8fJ	.	.	.	.	.
4g	ge--nem	4e	.	8cL	.	8EL	.
.	.	.	.	8BJ	.	8DJ	.
2a	-lo-Flei-	4e	.	4c	.	4C	.
.	.	4d	.	8BL	.	4F	.
.	.	.	.	8AJ	.	.	.
=2	=2	=2	=2	=2	=2	=2	=2
2g;	-bet-sche	2e;	.	2B;	.	2E;	.
4cc	undund	4g	.	4e	.	8EL	.
.	.	.	.	.	.	8DJ	.
4dd	ge-mit	4g	.	4f	.	8CL	.
.	.	.	.	.	.	8BBJ	.
=3	=3	=3	=3	=3	=3	=3	=3
4cc	-be-sei-	8gL	.	4e	.	4C	.
.	.	8f#J	.	.	.	.	.
4b	-ne--nem	4g	.	4d	.	4GG	.
2a	-dei-Blu-	8gL	.	4.d	.	4D	.
.	.	16f#L	.	.	.	.	.
.	.	16eJJ	.	.	.	.	.
.	.	4f#	.	.	.	4DD	.
.	.	.	.	8c	.	.	.
=4	=4	=4	=4	=4	=4	=4	=4
2g;	-et,-te;	2d;	.	2B;	.	2GG;	.
8aL	derdas	4f	.	4d	.	4D	.
8bJ	.	.	.	.	.	.	.
4cc	unsgib	8fL	.	4c	.	4AA	.
.	.	8eJ	.	.	.	.	.
=5	=5	=5	=5	=5	=5	=5	=5
8gL	sel-uns,	4d	.	4d	.	4BB	.
8fJ	.	.	.	.	.	.	.
4e	-berHerr	4c	.	4G	.	8CL	.
.	.	.	.	.	.	8BBJ	.
4f	hatGott,	8cL	.	4F	.	4AA	.
.	.	8BJ	.	.	.	.	.
4e	ge-zu	4c	.	4G	.	4GG	.
=6	=6	=6	=6	=6	=6	=6	=6
2d	-spei-Gu-	8cL	.	4A	.	4FF	.
.	.	16BL	.	.	.	.	.
.	.	16AJJ	.	.	.	.	.
.	.	4B	.	8GL	.	4GG	.
.	.	.	.	8FJ	.	.	.
4c;	-set-te!	4G;	.	4E;	.	4CC;	.
=:|!	=:|!	=:|!	=:|!	=:|!	=:|!	=:|!	=:|!
*>B	*	*>B	*	*>B	*	*>B	*
4g	Ky-	4e	.	4c	.	4C	.
=7	=7	=7	=7	=7	=7	=7	=7
4g	-rie	8dL	.	8GL	.	8BBL	.
.	.	8cJ	.	8AJ	.	8AAJ	.
4g	e-	8dL	.	4B	.	4GG	.
.	.	8fJ	.	.	.	.	.
4.a	-lei-	8eL	.	8cL	.	8CL	.
.	.	16dL	.	8F#	.	8DJ	.
.	.	16cJ	.	.	.	.	.
.	.	8B	.	8G	.	4E	.
8g	.	8c#J	.	8AJ	.	.	.
=8	=8	=8	=8	=8	=8	=8	=8
8f#L	.	8d	.	4B	.	4D	.
8gJ	.	4g	.	.	.	.	.
4a	.	.	.	16ALL	.	4DD	.
.	.	.	.	16BJ	.	.	.
.	.	8f#	.	8cJ	.	.	.
2g;	-son.	2d;	.	2B;	.	2GG;	.
=9	=9	=9	=9	=9	=9	=9	=9
4g	Herr,	4d	.	4B	.	8GL	.
.	.	.	.	.	.	8F#J	.
4g	durch	4e	.	8BL	.	4E	.
.	.	.	.	8c#J	.	.	.
4a	dei-	4f#	.	4d	.	8DL	.
.	.	.	.	.	.	8CJ	.
4b	-nen	4g	.	4d	.	4BB	.
=10	=10	=10	=10	=10	=10	=10	=10
4cc	heil'-	8gL	.	4c	.	4AA	.
.	.	8f#J	.	.	.	.	.
4b	-gen	4g	.	4d	.	8BBL	.
.	.	.	.	.	.	8GGJ	.
2a	Leich-	8gL	.	8eL	.	8CL	.
.	.	16f#L	.	8c	.	8AAJ	.
.	.	16eJJ	.	.	.	.	.
.	.	4f#	.	8A	.	4D	.
.	.	.	.	16dL	.	.	.
.	.	.	.	16cJJ	.	.	.
=11	=11	=11	=11	=11	=11	=11	=11
2g;	-nam,	2d;	.	2B;	.	2GG;	.
4b	der	4g	.	4d	.	8GL	.
.	.	.	.	.	.	8FJ	.
4cc	von	4g	.	4e	.	4E	.
=12	=12	=12	=12	=12	=12	=12	=12
4dd	dei-	4g	.	8dL	.	4.BB	.
.	.	.	.	8cJ	.	.	.
4dd	-ner	4g	.	4B	.	.	.
.	.	.	.	.	.	8E	.
4dd	Mutt'r	8g	Mut-	4c	Mutt'r	4AA	.
.	.	16f#LL	-ter	.	.	.	.
.	.	16eJJ	.	.	.	.	.
4a	Ma-	8f#L	Ma-	8dL	Ma-	4D	.
.	.	8fnJ	.	8cJ	.	.	.
=13	=13	=13	=13	=13	=13	=13	=13
4g	-ri-	8eL	-ri-	4B-	-ri-	4GG	ri-
.	.	8dJ	.	.	.	.	.
4e	-a	8dL	-a	8.AL	-a	4AA	-a
.	.	8c#J	.	.	.	.	.
.	.	.	.	16GJk	.	.	.
2d;	kam,	2A;	.	2F;	.	2D;	.
=14	=14	=14	=14	=14	=14	=14	=14
4e	und	4c	.	4G	.	8CL	.
.	.	.	.	.	.	8BBJ	.
4f#	das	4c	.	4A	.	4AA	.
8gL	hei-	4d	hei-	4G	hei-	4BB	hei-
8fnJ	.	.	.	.	.	.	.
4e	-li-	[4c	-li-	4G	-li-	8CL	.
.	.	.	.	.	.	8BBJ	.
=15	=15	=15	=15	=15	=15	=15	=15
2f#	-ge	8cL]	.	8AL	-ge	4AA	-li-
.	.	8eJ	.	8c	.	.	.
.	.	8dL	-ge	8B	.	4D	-ge
.	.	8cJ	.	8AJ	.	.	.
2g;	Blut	2B;	.	2G;	.	2GG;	.
=16	=16	=16	=16	=16	=16	=16	=16
8dL	hilf	4B	.	4G	.	4GG	.
8eJ	.	.	.	.	.	.	.
4f	uns,	4A	.	8CL	.	8AAL	.
.	.	.	.	8DJ	.	8BBJ	.
4e	Herr,	8GL	.	8EL	.	8CL	.
.	.	8cJ	.	8GJ	.	8EJ	.
4d	aus	4B	.	4G	.	8GL	.
.	.	.	.	.	.	8FJ	.
=17	=17	=17	=17	=17	=17	=17	=17
4e	al-	4.c	.	4G	.	8EL	.
.	.	.	.	.	.	8CJ	.
4d	-ler	.	.	8.GL	.	8GL	.
.	.	8B	.	.	.	8GGJ	.
.	.	.	.	16FJk	.	.	.
2c;	Not.	2G;	.	2E;	.	2C;	.
=18	=18	=18	=18	=18	=18	=18	=18
4r	.	4r	.	4r	.	4r	.
4g	Ky-	4d	.	8GL	.	4BB	.
.	.	.	.	8FJ	.	.	.
4g	-rie	4c	.	4E	.	4C	.
4g	e-	4G	.	8DL	.	4BB	.
.	.	.	.	8EJ	.	.	.
=19	=19	=19	=19	=19	=19	=19	=19
4.a	-lei-	8cL	.	4F	.	8AAL	.
.	.	8dJ	.	.	.	8BBJ	.
.	.	4e	.	8cL	.	4C	.
8g	.	.	.	8BJ	.	.	.
8f#L	.	2d	.	8A	.	2D	.
8gJ	.	.	.	4G	.	.	.
4a	.	.	.	.	.	.	.
.	.	.	.	8F#	.	.	.
=20	=20	=20	=20	=20	=20	=20	=20
2.g;	-son.	2.d;	.	2.B;	.	2.GG;	.
==|!	==|!	==|!	==|!	==|!	==|!	==|!	==|!
*-	*-	*-	*-	*-	*-	*-	*-
!!!RWG: Key is interpreted using the Humdrum key tool.
!!!END: 1994/06/06
!!!EMD: Converted from MuseData to Humdrum Dec 19, 2000, by Andreas Kornstaedt using muse2kern.
!!!EED: Craig Stuart Sapp
!!!EEV: 2024/03/31
!!!ONB: Some non-unicode characters
